X: 1
T: Hey! Johnnie Cope
O: Kerr's 3
M: C|
L: 1/8
K: Am
   e2 \
| "Am"A2A2    ABcd |"Am"e2A2 "D7"A2BA |  "G"G2G2     GABc |  "G"d2g2 B2G2 \
| "Am"c2Bc "G"d2cd | "C"e2g2  "G"B2AG | "Am"A2a2 "E7"edcB | "Am"A6 |]
  "G7"G2 \
|  "C"c3d     c2G2 | "C"cdef     gedc | "G7"B2G2     d2G2 | "G"Bcde d2cB \
| "Am"c2Bc "G"d2cd | "C"e2g2  "G"B2AG | "Am"A2a2 "E7"edcB | "Am"A6 |]
